X:54
T:Adam Hickey
R:jig
C:Paul Cranford
O:Cape Breton Island
S:http://www.cranfordpub.com
D:The Lighthouse, Paul Cranford, 1996
B:The Lighthouse Collection, Paul Stewart Cranford
Z:psc, (re-formatted,updated 9/20/04)
N:
H:                                                    copyrights Cranford Publications, SOCAN
L:1/8
Q:333
M:6/8
K:F
AG|F2 C DFC|Ddc Aag|fdc dfc|AGF GAG|
F2 C DFC|Ddc Aag|fdc dfc|AFF F:|
|:fg|a2 f a2 f|gec ceg|fdc dfc|[1AGF Gfg|
a2 f a2 f|gec ceg|fdc dfc|AFF F:|
[2 AGF GAG|F2 C DFC|Ddc Aag|fdc dfc|AFF F|]
